X:0427
T:The Prince's welcome &c.
T:For the Ger: Flute.
M:4/4
L:1/8
Q:1/2=104 "Moderato"
I: :: :: :: ::
Z:Jack Campin * www.campin.me.uk * 2009
K:G
ge  |d2G2 (cB)(AG)   | d2  G2  (cB)(AG)  |e2A2      A>Bc>d   |e2A2  A>Bc>e|
     edcB  g2  fe    |(ed)(cB) (cB)(AG)  |BAGE      DEGA     |B2G2  G2   ::
ga  |b2gb  a2  fa    | g2  eg   edcB     |e2A2      ABcd     |e2A2  ABcc' |
     bagb  agea      | gedg     edcB     |cBAG      DEGA     |B2G2  G2   ::
d'c'|b2g2  bc'd'c'   | b2g2     bc'd'b   |c'2a2     abc'd'   |e'2a2 a2d'c'|
     b2g2 (bc')(d'c')| b2g2    (bc')(d'g)|(de)(ga) (bd')(ac')|b2g2  g2   ::
c'2 |bagb  agea      | gedg     edcB     |eAaA      ABcd     |eAaA  ABcc' |
     bagb  agea      | gedg     edcB     |cBAG      DEGA     |B2G2  G2   :|
<end>
<start>
